!! 00000] TT[00
!! NN
!!!OTL: Siji hua kai
!!!ARE: Asia, China,ÿHubei, Qianyang
!! Ethnic Group: Han
!! I, 384
!!!SCT: C0105
!!!YEM: Copyright 1995, estate of Helmut Schaffrath.
**kern
*ICvox
*Ivox
*M2/4
*k[f#c#]
*D:
{8.ee
16dd
16dd
16ee
16dd
16dd
=1
8a
4a
8a
=2
16dd
16ff#
4dd
8ff#
=3
8.ee
16dd
8b
8a}
=4
{8a
4dd
16a
16f#
=5
16a
16b
16a
16f#
4a
=6
8dd
4dd
16ff#
16aa
=7
8.ee
16dd
8dd
8a}
=8
{8dd
8a
8dd
8a
=9
4.dd
16a
16f#
=10
8a
8f#
16a
16b
16a
16f#
=11
8.e
16f#
4a}
=12
{8a
4dd
8f#
=13
8.e
16f#
4a
=14
8dd
8a
8dd
8a
=15
8a
4dd
8f#
=16
8.a
16f#
4d}
=17
{16f#
16a
16f#
16e
8d
8f#
=18
16e
16f#
16e
16d
4e}
==
!!!AGN: Xiaodiao, Wanglang huakai diao. Xin minge
!! neues Volkslied. +++ Tonart, Takt, kl. Wert ERRATEN. +++
!!    Vereinzelt Verzierungen. Vorspiel weggelassen.
!!!ONB: ESAC (Essen Associative Code) Database: CHINA
!!!AMT: simple duple
!!!AIN: vox
!!!EED: Helmut Schaffrath
!!!EEV: 1.0
*-
